X:20
T:Athole Lads, The
R:Reel
S:McGlashan - Reels
M:C|
L:1/8
K:A
e|c2 Ac/d/ ecAB|c2 Ac/d/ ecBd|c2 Ac/d/ ecAa|acA>f ecB>e|c2 Ac/d/ ecAB|
c2 A/c/d/ ecBd|c2 Ac/d/ ecAa|ace>c acBe||c2 Af/g/ acAB|c2 Af/g/ acBd|
c2 Af/g/ acAa|acAf ecBe|c2 Af/g/ acAB|c2 Af/g/ acBd|cAAf efae|faef ceBe||
cA A/A/A e>cAB|cA A/A/A e>CBd|c>A A/A/A e>cAa|AcAf e>cBe|
c>A A/A/A e>cAB|c>A A/A/A ecBd|cAAf efae|faef ceBe||c>A a>a acAB|
cA a>a acBd|c>A a>a acAa|acec acBe|c>A a>a acAB|c>A a>a acBd|
cA aA a>bae|faef ceBe||c<A E>f ecAB|c<A E>f ecBd|c<A E>f ecAa|
acAf ecBe|c<A E>f ecAB|c<A E>f ecBd|c<A E>f efae|faef ceBe||
c<A a>b acAB|c<A ~a>B acBd|c<A a>a a>bae|faef ceBe|c<A ~a>b acAB|
c<A a>b acBd|c<A aA aba>e|fag>e ceBe||

